X:1
T:Ave Maria - Canniciari
T:James Gibb editions
T:#
%%score [ 1 2 3 4 ]
L:1/8
Q:1/4=200
M:none
K:F
V:1 treble nm="Soprano" snm="S"
V:2 treble nm="Alto" snm="A"
V:3 treble-8 nm="Tenor" snm="T"
V:4 bass nm="Bass" snm="B"
V:1
"^Ave Maria""^Pompeo Canniciari\n(1670-1744)" A8 D8 | A8 B8 | A4 d6 d2 ^c4 | d4 A4 z8 | %4
w: A- ve|Ma- ri-|a, gra- ti- a|ple- na,|
 z8 (A4 d4- | d2) d2 ^c4 d4 G4 | A4 (A6 G2 F2 E2 | F6 E2) D4 d4- | d2 d2 c4 (=B8- | %9
w: gra\- *|* ti- a, gra- ti-|a ple\- * * *|* * na, gra\-|* ti- a ple\-|
 B2 A4 =B2 ^G4 A4 | =B8) A4 A4 | =B8 ^c8 | d8 A4 A4- | A4 A4 G4 E4 | A6 A2 =B4 ^c4 | %15
w: |* na, Do-|mi- nus|te- cum: be\-|* ne- dic- ta|tu in mu- li-|
 (d4 A2 =B2 =c2 d2 e2 E2 | F4 E2 D2 A6) A2 | D8 z8 | z4 e4 f4 d4 | e4 c4 d4 =B4 | c6 c2 F4 G4 | %21
w: e\- * * * * * *|* * * * ri-|bus,|et be- ne-|dic- tus fruc- tus|ven- tris, ven- tris|
 E4 F4 z8 | z4 A4 B4 G4 | A4 F4 B4 c4 | A4 B4 G4 A4 | F4 G4 G8 | F8 z4 c4- | c4 c4 A4 F4 | %28
w: tu- i,|et be- ne-|dic- tus fruc- tus|ven- tris tu- i,|ven- tris tu-|i, be\-|* ne- dic- ta|
 c8 z4 c4- | c4 c4 =B4 G4 | c8 z4 =B4 | c4 G4 A4 G4 | G16- | G8 z8 | z4 c4 d4 =B4 | c4 A4 =B4 G4 | %36
w: tu, be\-|* ne- dic- ta|tu in|mu- li- e- ri-|bus,||et be- ne-|dic- tus fruc- tus|
 A4 =B4 (c8- | c4 =B4) c8 | z8 z4 c4 | d4 =B4 c4 A4 | =B4 G4 A4 B4 | ^G4 A4 (A4 G4) | %42
w: ven- tris tu\-|* * i,|et|be- ne- dic- tus|fruc- tus ven- tris,|ven- tris tu\- *|
 A4 ^c4 d4 e4 | ^c4 d4 d4 c4 | d4 f4 e4 A4 | z4 ^c4 d4 B4 | A4 d4 d4 ^c4 | d6 d2 ^c4 e4 | %48
w: i, et be- ne-|dic- tus fruc- tus|ven- tris tu- i,|et be- ne-|dic- tus fruc- tus,|be- ne- dic- tus|
 A6 G2 F4 B4 | A4 A4 z8 | z16 | z4 A4 B4 G4 | A4 F4 G4 D4 | E4 A4 B4 B4 | A16 | %55
w: fruc- tus ven- tris|tu- i,||et be- ne-|dic- tus fruc- tus,|fruc- tus ven- tris|tu-|
 A8[Q:1/4=197] D4[Q:1/4=193] E4 |[Q:1/4=190] F4[Q:1/4=186] G4[Q:1/4=182] G4[Q:1/4=178] F4 | %57
w: i, fruc- tus,|fruc- tus ven- tris|
[Q:1/4=173] E8[Q:1/4=170] D16 |] %58
w: tu- i.|
V:2
 z16 | z16 | D8 A,8 | D8 F8 | E4 A6 A2 G4 | (F4 E6 D2 D2 E2 | F8) E8 | z4 A6 G2 F4 | %8
w: ||A- ve|Ma- ri-|a, gra- ti- a|ple\- * * * *|* na,|gra- ti- a|
 (G2 F2 E2 DC D8) | C4 E6 E2 E4 | (E6 D2 C8) | =B,8 z8 | z4 D4 E8 | ^F8 G8 | D8 z8 | D6 D2 C4 A,4 | %16
w: ple\- * * * * *|na, gra- ti- a|ple\- * *|na|Do- mi-|nus te-|cum:|be- ne- dic- ta|
 D6 D2 E4 ^F4 | (G12 F4 | E6) E2 D8 | z16 | z16 | z4 A4 B4 G4 | A4 F4 G4 E4 | F4 D4 D4 C4 | %24
w: tu in mu- li-|e\- *|* ri- bus,|||et be- ne-|dic- tus fruc- tus,|be- ne- dic- tus|
 F6 F2 G4 E4 | F12 E4 | z4 F8 F4 | E4 C4 F6 G2 | A6 A2 G6 G2 | F8 D8 | E6 E2 F6 F2 | E4 E4 C4 E4 | %32
w: fruc- tus ven- tris|tu- i,|be- ne-|dic- ta tu in|mu- li- e- ri-|bus, in|mu- li- e- ri-|bus, in mu- li-|
 (D4 E4 D6) D2 | C8 z8 | z8 z4 G4 | E4 F4 D4 E4 | C4 F4 G6 G2 | G8 G8 | z8 z4 E4 | D4 E4 C4 D4 | %40
w: e\- * * ri-|bus,|et|be- ne- dic- tus|fruc- tus ven- tris|tu- i,|et|be- ne- dic- tus|
 =B,4 C4 A,4 F4 | E16 | E8 z8 | z4 A4 B4 G4 | A4 F4 G4 E4 | F4 E4 D4 E4 | z4 A4 B4 G4 | %47
w: fruc- tus ven- tris|tu-|i,|et be- ne-|dic- tus fruc- tus|ven- tris tu- i,|et be- ne-|
 A4 F4 G4 E4 | (F6 G2 A4) G4 | E8 D8 | z4 A4 B4 G4 | A4 F4 G4 E4 | z4 A4 B4 G4 | A4 F4 G6 F2 | %54
w: dic- tus fruc- tus|ven\- * * tris|tu- i,|et be- ne-|dic- tus fruc- tus,|et be- ne-|dic- tus fruc- tus|
 E4 F4 E8 | D4 F8 E4 | D4 E4 ^C4 D4 | (D4 ^C4) D16 |] %58
w: ven- tris tu-|i, fruc- tus,|fruc- tus ven- tris|tu\- * i.|
V:3
 z16 | z16 | z16 | z16 | A8 D8 | A8 B8 | A4 d6 d2 ^c4 | d8 A8 | z4 (A4 =B6) B2 | c8 (=B4 A4 | %10
w: ||||A- ve|Ma- ri-|a, gra- ti- a|ple- na,|gra\- * ti-|a ple\- *|
 E8 A8- | A4) ^G4 z4 A4 | =B8 ^c8 | d12 ^c4 | z4 d4 d4 e4 | f8 e8 | z4 A2 =B2 c4 c4 | d4 d4 e4 d4 | %18
w: |* na, Do-|mi- nus|te- cum,|Do- mi- nus|te- cum:|be- ne- dic- ta|tu in mu- li-|
 d4 ^c4 d8 | z4 e4 f4 d4 | e4 c4 d4 B4 | c4 A4 d4 e4 | c4 d4 z4 B4 | c4 A4 B4 G4 | A4 F4 c8 | %25
w: e- ri- bus,|et be- ne-|dic- tus fruc- tus|ven- tris, ven- tris|tu- i, et|be- ne- dic- tus|fruc- tus ven-|
 A4 d4 c8 | z16 | z4 c8 c4 | A4 F4 c6 =B2 | A6 A2 (=B6 A2 | G8 d6) d2 | G4 c4 A4 c4 | (=B4 c8) B4 | %33
w: tris tu- i,||be- ne-|dic- ta tu in|mu- li- e\- *|* * ri-|bus, in mu- li-|e\- * ri-|
 c4 e4 f4 d4 | e4 c4 =B4 d4 | c4 d4 =B4 c4 | c4 d4 (G4 e4) | d4 d4 e4 c4 | f4 d4 e4 c4 | %39
w: bus, et be- ne-|dic- tus fruc- tus|ven- tris, fruc- tus|ven- tris tu\- *|i, et be- ne-|dic- tus fruc- tus|
 =B4 B4 e4 f4 | d4 e4 c4 d4 | =B4 c4 B8 | A8 z4 g4 | e4 f4 d4 e4 | d4 d4 ^c4 c4 | d4 e4 z4 e4 | %46
w: ven- tris, fruc- tus|ven- tris, fruc- tus|ven- tris tu-|i, et|be- ne- dic- tus|fruc- tus ven- tris|tu- i, et|
 ^c4 d4 d4 e4 | A4 B4 G4 A4 | A4 d4 d4 d4 | (d4 ^c4) d6 d2 | ^c4 d4 d4 e4 | d8 d4 B4 | %52
w: be- ne- dic- tus|fruc- tus ven- tris,|fruc- tus ven- tris|tu\- * i, et|be- ne- dic- tus|fruc- tus, et|
 A4 d4 B4 d4 | ^c4 d4 d4 e4 | ^c4 d4 (d4 c4) | d8 A8 | B8 A6 A2 | A8 A16 |] %58
w: be- ne- dic- tus|fruc- tus, fruc- tus|ven- tris tu\- *|i, fruc-|tus ven- tris|tu- i.|
V:4
 z16 | z16 | z16 | z16 | z16 | z16 | D,8 A,,8 | D,8 F,8 | E,4 A,6 A,2 ^G,4 | A,8 E,4 A,4- | %10
w: ||||||A- ve|Ma- ri-|a, gra- ti- a|ple- na, gra\-|
 A,2 A,2 ^G,4 (A,2 =G,2 F,2 E,2 | D,4 E,4) A,,8 | z16 | z4 D,4 E,8 | ^F,8 G,8 | D,8 z8 | %16
w: * ti- a ple\- * * *|* * na,||Do- mi-|nus te-|cum:|
 D,6 D,2 C,4 A,,4 | =B,,6 B,,2 ^C,4 D,4 | A,,6 A,,2 D,8 | z16 | z4 A,4 B,4 G,4 | A,4 F,4 G,4 E,4 | %22
w: be- ne- dic- ta|tu in mu- li-|e- ri- bus,||et be- ne-|dic- tus fruc- tus|
 F,4 D,4 G,8 | F,4 F,4 G,4 E,4 | F,4 D,4 E,4 C,4 | D,4 B,,4 C,8 | F,,8 z8 | z8 F,8- | %28
w: ven- tris tu-|i, et be- ne-|dic- tus fruc- tus|ven- tris tu-|i,|be\-|
 F,4 F,4 E,4 C,4 | F,6 F,2 G,6 F,2 | (E,4 D,2 C,2 D,6) D,2 | C,4 E,4 F,4 C,4 | G,12 G,4 | %33
w: * ne- dic- ta|tu in mu- li-|e\- * * * ri-|bus, in mu- li-|e- ri-|
 C,4 C4 D4 =B,4 | C4 A,4 =B,4 G,4 | A,4 F,4 G,4 E,4 | F,4 D,4 E,4 C,4 | G,8 C,4 C4 | %38
w: bus, et be- ne-|dic- tus fruc- tus|ven- tris tu- i,|fruc- tus ven- tris|tu- i, et|
 D4 =B,4 C4 A,4 | =B,4 ^G,4 A,4 F,4 | =G,4 E,4 F,4 D,4 | E,4 A,,4 E,8 | A,,4 A,4 B,4 G,4 | %43
w: be- ne- dic- tus|fruc- tus ven- tris|tu- i, fruc- tus|ven- tris tu-|i, et be- ne-|
 A,4 F,4 G,4 E,4 | F,4 D,4 E,4 ^C,4 | z4 A,4 B,4 G,4 | A,4 F,4 G,4 E,4 | F,4 D,4 E,4 ^C,4 | %48
w: dic- tus fruc- tus|ven- tris tu- i,|et be- ne-|dic- tus fruc- tus|ven- tris tu- i,|
 D,6 E,2 F,4 G,4 | A,4 A,2 A,2 B,4 G,4 | A,4 F,4 G,4 E,4 | F,4 D,4 G,8 | F,4 D,4 G,4 B,4 | %53
w: fruc- tus ven- tris|tu- i, et be- ne-|dic- tus fruc- tus|ven- tris tu-|i, et be- ne-|
 A,4 D,4 G,4 G,4 | A,4 D,4 A,,8 | D,4 D,8 C,4 | B,,4 G,,4 A,,4 D,4 | A,,8 D,16 |] %58
w: dic- tus fruc- tus|ven- tris tu-|i, fruc- tus,|fruc- tus ven- tris|tu- i.|

